X: 1
T: Kitty Magee
M: 6/8
L: 1/8
R: jig
K: Dmaj
|: d | d2A AFA | d3 efg | f2d e2d | c2A ABc |
d2A AFA | d3 efg | f3 gec | ded d2  :|
|: A | d2f a2f | e2f g3 | f2d e2d | c2A Afg |
a3 g2f | e2f g3 | f2d e2c | ded d2  :|
